!!!COM: Palestrina, Giovanni Perluigi da
!!!OPR: Missa Fratres Ego Enim Accepi
!!!OMD: Gloria
!!!OTL: Qui tollis
**kern	**kern	**kern	**kern	**kern	**kern	**kern	**kern
*Ibass	*Itenor	*Icalto	*Icant	*Ibass	*Itenor	*Icalto	*Icant
!Bassus	!Tenor	!Altus	!Cantus	!Bassus	!Tenor	!Altus	!Cantus
*clefF4	*clefGv2	*clefG2	*clefG2	*clefF4	*clefGv2	*clefG2	*clefG2
*k[b-]	*k[b-]	*k[b-]	*k[b-]	*k[b-]	*k[b-]	*k[b-]	*k[b-]
*G:dor	*G:dor	*G:dor	*G:dor	*G:dor	*G:dor	*G:dor	*G:dor
*M4/2	*M4/2	*M4/2	*M4/2	*M4/2	*M4/2	*M4/2	*M4/2
=62	=62	=62	=62	=62	=62	=62	=62
0r	1r	1r	1a	0r	0r	0r	0r
.	1d	1a	[1dd	.	.	.	.
=63	=63	=63	=63	=63	=63	=63	=63
0r	1g	1b-	1dd]	0r	0r	0r	0r
.	2e	2g	2cc	.	.	.	.
.	2f	2a	2cc	.	.	.	.
=64	=64	=64	=64	=64	=64	=64	=64
0r	2f	2a	2dd	0r	0r	0r	0r
.	2e	2g	2ee	.	.	.	.
.	4d	4f	2.ff	.	.	.	.
.	4c	4e	.	.	.	.	.
.	4B-	4d	.	.	.	.	.
.	4c	4e	4ee	.	.	.	.
=65	=65	=65	=65	=65	=65	=65	=65
0r	4d	4f	2dd	0r	0r	0r	0r
.	4e	4g	.	.	.	.	.
.	2.f	2.a	4cc	.	.	.	.
.	.	.	4b-	.	.	.	.
.	.	.	2.cc	.	.	.	.
.	4e	4g	.	.	.	.	.
.	2c	[2g	.	.	.	.	.
.	.	.	4b-	.	.	.	.
=66	=66	=66	=66	=66	=66	=66	=66
1D	1.d	2g]	1a	0r	0r	0r	0r
.	.	2f#	.	.	.	.	.
1G	.	[1g	1b	.	.	.	.
.	2d	.	.	.	.	.	.
=67	=67	=67	=67	=67	=67	=67	=67
2E	4c	2g]	1cc	0r	0r	0r	0r
.	4B-	.	.	.	.	.	.
2F	4A	2a	.	.	.	.	.
.	4G	.	.	.	.	.	.
2F	2A	2a	2cc	.	.	.	.
2E	[2c	2g	2cc	.	.	.	.
=68	=68	=68	=68	=68	=68	=68	=68
1D	2c]	2.f	1ff	1r	1r	1r	0r
.	2B	.	.	.	.	.	.
.	.	4g	.	.	.	.	.
[1C	[1c	2a	[1ee	2r	2r	2r	.
.	.	4g	.	[2c	[2e	2g	.
.	.	4f	.	.	.	.	.
=69	=69	=69	=69	=69	=69	=69	=69
1C]	1c]	2e	1ee]	2c]	2e]	2g	0r
.	.	2c	.	2c	2e	2.a	.
1r	1r	1r	1r	1d	1f	.	.
.	.	.	.	.	.	4g	.
.	.	.	.	.	.	[2f	.
=70	=70	=70	=70	=70	=70	=70	=70
0r	0r	0r	0r	2.c	1g	2f]	1.cc
.	.	.	.	.	.	4e	.
.	.	.	.	4B-	.	4d	.
.	.	.	.	4A	2.a	2e	.
.	.	.	.	4G	.	.	.
.	.	.	.	2F	.	[2a	2cc
.	.	.	.	.	4g	.	.
=71	=71	=71	=71	=71	=71	=71	=71
0r	0r	0r	0r	1B-	4f	2a]	1dd
.	.	.	.	.	4e	.	.
.	.	.	.	.	2d	2g	.
.	.	.	.	1A	2e	2.a	2.cc
.	.	.	.	.	2c	.	.
.	.	.	.	.	.	4g	4b-
=72	=72	=72	=72	=72	=72	=72	=72
0r	0r	0r	0r	1D	4d	4f	4a
.	.	.	.	.	4e	4e	4g
.	.	.	.	.	1f	1d	2f
.	.	.	.	1G	.	.	1b-
.	.	.	.	.	2e	4c	.
.	.	.	.	.	.	4B-	.
=73	=73	=73	=73	=73	=73	=73	=73
2r	2r	2r	2r	1F	1f	1c	1a
1F	1A	1f	2cc	.	.	.	.
.	.	.	2cc	1r	1r	1r	1r
2F	2A	2f	[2dd	.	.	.	.
=74	=74	=74	=74	=74	=74	=74	=74
1G	1B-	2.d	4dd]	0r	0r	0r	0r
.	.	.	4cc	.	.	.	.
.	.	.	1b-	.	.	.	.
.	.	4e	.	.	.	.	.
2.F	1c	4f	.	.	.	.	.
.	.	4g	.	.	.	.	.
.	.	[2f	4a	.	.	.	.
4E	.	.	4g	.	.	.	.
=75	=75	=75	=75	=75	=75	=75	=75
4D	1F	4f]	2a	0r	0r	0r	0r
4C	.	4e	.	.	.	.	.
2BB-	.	4d	2.b-	.	.	.	.
.	.	4c	.	.	.	.	.
1E-	1G	2B-	.	.	.	.	.
.	.	.	4a	.	.	.	.
.	.	2c	2g	.	.	.	.
=76	=76	=76	=76	=76	=76	=76	=76
0D	2A	0d	2f#	0r	0r	0r	0r
.	2B-	.	1g	.	.	.	.
.	1A	.	.	.	.	.	.
.	.	.	2f#	.	.	.	.
=77	=77	=77	=77	=77	=77	=77	=77
1G	1G	1d	1g	2r	2r	2r	1b
.	.	.	.	2G	2d	2g	.
1r	1r	1r	1r	1c	1e	1g	1cc
=78	=78	=78	=78	=78	=78	=78	=78
0r	0r	0r	0r	2A	0f	2a	2cc
.	.	.	.	2B-	.	2d	2dd
.	.	.	.	2B-	.	2d	2dd
.	.	.	.	2A	.	2f	[2cc
=79	=79	=79	=79	=79	=79	=79	=79
0r	0r	0r	0r	0G	2r	1g	2cc]
.	.	.	.	.	2d	.	4b-
.	.	.	.	.	.	.	4a
.	.	.	.	.	1g	1d	4b-
.	.	.	.	.	.	.	4cc
.	.	.	.	.	.	.	4dd
.	.	.	.	.	.	.	4b-
=80	=80	=80	=80	=80	=80	=80	=80
0r	0r	0r	0r	2A	2e	1a	2cc
.	.	.	.	2D	2f	.	1dd
.	.	.	.	2D	2f	2a	.
.	.	.	.	2E	2e	2g	[2cc
=81	=81	=81	=81	=81	=81	=81	=81
1r	1r	1r	1r	2F	1d	2a	2cc]
.	.	.	.	2G	.	2g	2b
2r	2r	2r	2r	1C	1e	1g	1cc
[2c	[2e	[2g	[2cc	.	.	.	.
=82	=82	=82	=82	=82	=82	=82	=82
2c]	2e]	2g]	2cc]	1r	1r	1r	1r
2F	2f	2a	2cc	.	.	.	.
1F	1f	1a	1cc	2r	2r	2r	2r
.	.	.	.	[2F	[2f	[2a	[2cc
=83	=83	=83	=83	=83	=83	=83	=83
2r	2r	2r	2r	2F]	2f]	2a]	2cc]
1B-	1f	1b-	1dd	2BB-	2d	2f	2b-
.	.	.	.	1BB-	1d	1f	1b-
2B-	2f	2b-	2dd	.	.	.	.
=84	=84	=84	=84	=84	=84	=84	=84
1B-	1f	1.b-	1dd	2.BB-	2.B-	2.d	2.ff
.	.	.	.	4BB-	4B-	4d	4ff
1B-	1f	.	1dd	2BB-	2d	2B-	2ff
.	.	2f	.	2BB-	2B-	2d	2ff
=85	=85	=85	=85	=85	=85	=85	=85
1A	1F	2a	1cc	1F	1c	2f	1ff
.	.	2.f	.	.	.	2c	.
1B-	2f	.	1ff	1BB-	2B-	2.d	2dd
.	.	4e	.	.	.	.	.
.	[2f	2d	.	.	[2d	.	[2dd
.	.	.	.	.	.	4e	.
=86	=86	=86	=86	=86	=86	=86	=86
1F	4f]	2a	0ff	2.D	4d]	0f	4dd]
.	4e	.	.	.	4e	.	4cc
.	2d	2.f	.	.	2f	.	1b-
.	.	.	.	4E	.	.	.
1F	1c	.	.	1F	2F	.	.
.	.	4e-	.	.	.	.	.
.	.	2c	.	.	[2f	.	2a
=87	=87	=87	=87	=87	=87	=87	=87
2r	2B-	2d	2dd	0BB-	4f]	0f	0b-
.	.	.	.	.	4e-	.	.
2B-	2d	2f	2dd	.	4d	.	.
.	.	.	.	.	4c	.	.
2.B-	1f	[1b-	2.dd	.	2d	.	.
.	.	.	.	.	2B-	.	.
4A	.	.	4cc	.	.	.	.
=88	=88	=88	=88	=88	=88	=88	=88
4G	1g	1b-]	4b-	0r	0r	0r	0r
4A	.	.	4cc	.	.	.	.
4B-	.	.	4dd	.	.	.	.
4c	.	.	4ee	.	.	.	.
1d	2r	2a	1ff	.	.	.	.
.	2f	2a	.	.	.	.	.
=89	=89	=89	=89	=89	=89	=89	=89
1c	2g	2cc	1ee	0r	0r	0r	0r
.	2e	2g	.	.	.	.	.
1F	2f	2a	2r	.	.	.	.
.	2a	[2f	2cc	.	.	.	.
=90	=90	=90	=90	=90	=90	=90	=90
2r	1g	2f]	2dd	0r	0r	0r	0r
2c	.	2e	2cc	.	.	.	.
2d	1f	2f	2a	.	.	.	.
2B-	.	2b-	[2dd	.	.	.	.
=91	=91	=91	=91	=91	=91	=91	=91
2c	2e	4a	4dd]	0r	0r	0r	0r
.	.	2g	4cc	.	.	.	.
2A	4d	.	1cc	.	.	.	.
.	4c	4f#	.	.	.	.	.
1G	1d	1g	.	.	.	.	.
.	.	.	2b	.	.	.	.
=92	=92	=92	=92	=92	=92	=92	=92
1.C	1.c	1.e	2cc	2r	2r	2r	2r
.	.	.	1gg	1c	1g	1e	1ee
2C	2c	2e	2gg	2c	2e	2c	2ee
=93	=93	=93	=93	=93	=93	=93	=93
1C	1c	1e	1gg	1c	2c	1g	1ee
.	.	.	.	.	2g	.	.
1G	1d	1g	1gg	1B	2r	1G	1dd
.	.	.	.	.	[2g	.	.
=94	=94	=94	=94	=94	=94	=94	=94
0C	0c	2.e	2.gg	0c	4g]	0g	0ee
.	.	.	.	.	4f	.	.
.	.	.	.	.	4e	.	.
.	.	4f	4ff	.	4d	.	.
.	.	1g	2ee	.	1c	.	.
.	.	.	2cc	.	.	.	.
=95	=95	=95	=95	=95	=95	=95	=95
1F	1A	1a	1cc	2F	2c	2a	2ff
.	.	.	.	1F	1f	1a	1cc
1r	1r	1r	1r	.	.	.	.
.	.	.	.	2F	2f	2a	2cc
=96	=96	=96	=96	=96	=96	=96	=96
0r	0r	0r	0r	1F	2f	4a	1cc
.	.	.	.	.	.	4g	.
.	.	.	.	.	2a	4f	.
.	.	.	.	.	.	4e	.
.	.	.	.	1B-	2f	4d	1dd
.	.	.	.	.	.	4e	.
.	.	.	.	.	2d	4f	.
.	.	.	.	.	.	4g	.
=97	=97	=97	=97	=97	=97	=97	=97
0r	0r	0r	0r	2A	4e	1a	2cc
.	.	.	.	.	8d	.	.
.	.	.	.	.	8e	.	.
.	.	.	.	2F	4f	.	2a
.	.	.	.	.	4e	.	.
.	.	.	.	2.G	4d	2r	[1b-
.	.	.	.	.	4c	.	.
.	.	.	.	.	[2d	2g	.
.	.	.	.	4A	.	.	.
=98	=98	=98	=98	=98	=98	=98	=98
0r	1r	0r	0r	4B-	4d]	2f	2b-]
.	.	.	.	4c	4c	.	.
.	.	.	.	1d	2B-	2d	2g
.	2r	.	.	.	1A	1e	1a
.	2a	.	.	2c#	.	.	.
=99	=99	=99	=99	=99	=99	=99	=99
1r	2f	2r	2r	1d	0r	1d	0r
.	2d	2b-	2dd	.	.	.	.
2r	2.f	2a	2cc	1r	.	1r	.
2d	.	2f	2a	.	.	.	.
.	8e	.	.	.	.	.	.
.	8d	.	.	.	.	.	.
=100	=100	=100	=100	=100	=100	=100	=100
2c	2e	2g	2.cc	1r	1r	0r	0r
2A	1f	2a	.	.	.	.	.
.	.	.	8b-	.	.	.	.
.	.	.	8cc	.	.	.	.
2B-	.	1g	2dd	2r	2r	.	.
2c	2e	.	2cc	2c	2g	.	.
=101	=101	=101	=101	=101	=101	=101	=101
1F	1f	1f	1cc	2A	0a	2r	1r
.	.	.	.	2F	.	2f	.
1r	1r	1r	1r	1A	.	2e	1cc
.	.	.	.	.	.	2c	.
=102	=102	=102	=102	=102	=102	=102	=102
0r	0r	0r	0r	2B-	1g	2d	2b-
.	.	.	.	2c	.	2e	2g
.	.	.	.	4F	2r	2f	4a
.	.	.	.	4G	.	.	4b-
.	.	.	.	4A	2a	[2c	4cc
.	.	.	.	4B-	.	.	4dd
=103	=103	=103	=103	=103	=103	=103	=103
0r	0r	0r	0r	1c	2g	2c]	4ee
.	.	.	.	.	.	.	4ff
.	.	.	.	.	2e	2cc	2.gg
.	.	.	.	1d	1f	1a	.
.	.	.	.	.	.	.	4ff
.	.	.	.	.	.	.	2ff
=104	=104	=104	=104	=104	=104	=104	=104
0r	0r	0r	0r	2G	2.g	1b-	4ee
.	.	.	.	.	.	.	4dd
.	.	.	.	2G	.	.	1ee
.	.	.	.	.	4f	.	.
.	.	.	.	1A	2e	1a	.
.	.	.	.	.	2e	.	2cc#
=105	=105	=105	=105	=105	=105	=105	=105
0BB-	1d	0b-	0ff	0B-	1d	2.f	1dd
.	.	.	.	.	.	4e	.
.	1B-	.	.	.	1f	4d	1dd
.	.	.	.	.	.	4e	.
.	.	.	.	.	.	4f	.
.	.	.	.	.	.	4g	.
=106	=106	=106	=106	=106	=106	=106	=106
0F	0c	0a	0ff	0F	0f	4a	2.cc
.	.	.	.	.	.	4b-	.
.	.	.	.	.	.	1cc	.
.	.	.	.	.	.	.	4b-
.	.	.	.	.	.	.	1a
.	.	.	.	.	.	2c	.
=107	=107	=107	=107	=107	=107	=107	=107
0C	1c	0g	0ee	0c	2.g	4c	0cc
.	.	.	.	.	.	4d	.
.	.	.	.	.	.	4e	.
.	.	.	.	.	4f	4f	.
.	1c	.	.	.	4e	1g	.
.	.	.	.	.	4d	.	.
.	.	.	.	.	2c	.	.
=108	=108	=108	=108	=108	=108	=108	=108
1G	2r	1g	1dd	2G	2d	1g	1b
.	1G	.	.	2G	2g	.	.
1C	.	1g	1r	2.c	4g	1e	[1cc
.	.	.	.	.	4f	.	.
.	[2c	.	.	.	4e	.	.
.	.	.	.	4B-	4d	.	.
=109	=109	=109	=109	=109	=109	=109	=109
1F	2c]	0a	1cc	4A	1c	2.f	1cc]
.	.	.	.	4G	.	.	.
.	1A	.	.	1F	.	.	.
.	.	.	.	.	.	4g	.
2.D	.	.	2.dd	.	1F	2a	[1ff
.	[2d	.	.	2D	.	2f	.
4E	.	.	4cc	.	.	.	.
=110	=110	=110	=110	=110	=110	=110	=110
4F	2d]	0a	4a	2.A	2r	1.a	2ff]
4G	.	.	4b-	.	.	.	.
2A	2c	.	2cc	.	1A	.	2ee
.	.	.	.	4G	.	.	.
1D	1f	.	2a	2F	.	.	2dd
.	.	.	[2dd	2D	2A	2f	2dd
=111	=111	=111	=111	=111	=111	=111	=111
1.A	2.e	1.a	2dd]	1AA	0A	2.a	1ee
.	.	.	4cc#	.	.	.	.
.	4d	.	4b	.	.	8g	.
.	.	.	.	.	.	8f	.
.	1e	.	2cc#	2r	.	2e	2r
2A	.	2a	2cc#	2A	.	2a	2ee
=112	=112	=112	=112	=112	=112	=112	=112
1D	1d	1a	1dd	1d	2r	2a	1ff
.	.	.	.	.	2d	2a	.
1r	1r	1r	1r	2d	1a	1f	2ff
.	.	.	.	2d	.	.	2ff
=113	=113	=113	=113	=113	=113	=113	=113
0r	0r	0r	0r	2c	2a	1cc	2ee
.	.	.	.	2A	2a	.	2cc
.	.	.	.	1c	2g	2cc	1ee
.	.	.	.	.	2e	[2cc	.
=114	=114	=114	=114	=114	=114	=114	=114
0r	0r	0r	0r	1G	1g	2cc]	2dd
.	.	.	.	.	.	1b-	4dd
.	.	.	.	.	.	.	4ee
.	.	.	.	2r	2.d	.	4ff
.	.	.	.	.	.	.	4gg
.	.	.	.	[2d	.	4a	[2ff
.	.	.	.	.	4e	4g	.
=115	=115	=115	=115	=115	=115	=115	=115
0r	0r	1r	0r	4d]	2f	2a	4ff]
.	.	.	.	4c	.	.	4ee
.	.	.	.	4B-	2.g	2.b-	4dd
.	.	.	.	4A	.	.	4cc
.	.	2r	.	4G	.	.	4b-
.	.	.	.	4A	4f	4a	4cc
.	.	2d	.	2B-	2d	4f	[2dd
.	.	.	.	.	.	4g	.
=116	=116	=116	=116	=116	=116	=116	=116
2r	1r	1a	2r	1A	1e	1a	2dd]
2A	.	.	2ee	.	.	.	2cc#
1d	2r	2a	1ff	[1D	[1d	1f	[1dd
.	2d	2a	.	.	.	.	.
=117	=117	=117	=117	=117	=117	=117	=117
2d	1a	4f	2ff	1D]	1d]	0r	1dd]
.	.	4g	.	.	.	.	.
2d	.	4a	2ff	.	.	.	.
.	.	4b-	.	.	.	.	.
2c	2a	[1cc	2ee	1r	1r	.	2r
2A	2a	.	2cc	.	.	.	[2cc
=118	=118	=118	=118	=118	=118	=118	=118
1c	2g	2cc]	1ee	1C	1r	1g	2cc]
.	2e	2cc	.	.	.	.	2.gg
1G	1g	2b-	[1dd	1G	2r	1b-	.
.	.	.	.	.	.	.	4gg
.	.	[2g	.	.	2G	.	2gg
=119	=119	=119	=119	=119	=119	=119	=119
2.B-	1G	4g]	0dd]	2G	1d	2b-	2gg
.	.	4a	.	.	.	.	.
.	.	2b-	.	2G	.	2b-	2dd
4c	.	.	.	.	.	.	.
1d	1r	2r	.	2F	2d	2a	[1ff
.	.	[2a	.	2D	2d	2f	.
=120	=120	=120	=120	=120	=120	=120	=120
2.A	1c	2a]	2r	1F	2c	1a	1ff]
.	.	2cc	1cc	.	2A	.	.
4B-	.	.	.	.	.	.	.
1c	2.e	2c	.	[1C	2r	[1g	1ee
.	.	2c	[2gg	.	[2e	.	.
.	4f	.	.	.	.	.	.
=121	=121	=121	=121	=121	=121	=121	=121
1C	2g	2.e	4gg]	1C]	4e]	0g]	1cc
.	.	.	4gg	.	4f	.	.
.	1c	.	2gg	.	2.g	.	.
.	.	4f	.	.	.	.	.
1C	.	1g	2ee	1c	.	.	1cc
.	.	.	.	.	4f	.	.
.	2c	.	2cc	.	2e	.	.
=122	=122	=122	=122	=122	=122	=122	=122
1G	1B-	1g	1dd	2G	0d	2.b-	2r
.	.	.	.	1d	.	.	2dd
.	.	.	.	.	.	4a	.
1G	1B-	2r	1dd	.	.	4g	2b-
.	.	.	.	.	.	4f	.
.	.	[2d	.	2G	.	[2g	[2dd
=123	=123	=123	=123	=123	=123	=123	=123
0D	0A	2d]	0dd	0d	1r	2g]	2dd]
.	.	2d	.	.	.	4f#	2a
.	.	.	.	.	.	4e	.
.	.	1a	.	.	1d	1f#	1a
=124	=124	=124	=124	=124	=124	=124	=124
0G	0G	0g	0dd	0G	0d	0g	0b
==	==	==	==	==	==	==	==
*-	*-	*-	*-	*-	*-	*-	*-
!!!CDT: 1525/^1526/-1594/2/2
!!!OCY: Italia
!!!AGN: Mass (Parody)
!!!AST: renaissance, vocal
!!!ASW: Motet (Palestrina)
!!!PWK: Masses, Book 8vce
!!!RNB: Cadence finals: D
!!!YOR: Le Opere Complete, v. 30, p. 110
!!!YOO: Rome, Italy: Fratelli Scalera
!!!END: 1992//
!!!EED: John Miller
!!!YEC: Copyright 2000, John Miller
!!!YEN: United States of America
!!!YEM: Rights to all derivative electronic formats reserved.
!!!YEM: Refer to licensing agreement for further details.
!!!YEM: This file must be accompanied by the licensing agreement.
!!!YEM: A copy of the licensing agreement may be found at http://www.music-cog.ohio-state.edu/HumdrumDatabases/Palestrina/license.txt
!!!EMD: converted to Humdrum by Bret Aarden
